X:1
T:Come Over into Canaan
T:Come Over into Canaan
T:Haldor Lillenas
T:Haldor Lillenas, 1915
T:Public Domain Courtesy of the Cyber Hymnal™
T:Public Domain Courtesy of the Cyber Hymnal™
C:Haldor Lillenas
Z:Public Domain
Z:Courtesy of the Cyber Hymnal™
%%score ( 1 2 ) ( 3 4 )
L:1/8
Q:1/4=100
M:4/4
K:Eb
V:1 treble 
V:2 treble 
V:3 bass 
V:4 bass 
V:1
 E2 | [EG][EG][EG][EG] [EG][EF]E[EG] | [EB]2 [DB]2 [EB]2 [GB]2 | [Ge]>[Gd] [Ge][Ac] [GB]2 [EG]2 | %4
w: 1.~Why|wan- der in the wil- der- ness, O|faint- ing soul? Come|o- ver in- to Ca- naan|
w: 2.~Its|sun- kissed moun- tains rise a- bove the|val- ley fair, Come|o- ver in- to Ca- naan|
w: 3.~Sweet|songs of tri- umph ring with- in its|bor- ders bright, Come|o- ver in- to Ca- naan|
w: 4.~This|charm- ing land of Ca- naan is a|land of love, Come|o- ver in- to Ca- naan|
 [DF]6 E2 | [EG][EG][EG][EG] [EG][EF]E[EG] | [EB]2 [DB]2 [EB]2 [Ec]2 | %7
w: land; By|faith cross o- ver Jor- dan tho’ the|waves may roll, Come|
w: land; And|lus- cious fruits de- lec- ta- ble grow|ev- ery- where, Come|
w: land; No|burn- ing sands, but foun- tains spark- ling|with de- light, Come|
w: land; And|thro’ it we must pass to reach our|home a- bove, Come|
 [Fd]>[=E^c] [Fd][G_e] [Fd]2 [_E=c]2 | B4- !fermata![FB]2 ||"^Refrain" [EB]2 | %10
w: o- ver in- to Ca- naan|land. *||
w: o- ver in- to Ca- naan|land. Come||
w: o- ver in- to Ca- naan|land. *||
w: o- ver in- to Ca- naan|land. *||
 [EG] [EG]3 [EG][E^F][EG][EB] | [DA]6 [DB]2 | [DA] [DA]3 [Ad][Ac][GB][FA] | [EG]6 [GB][GB] | %14
w: ||||
w: o- ver in- to Ca- naan|land, Come|o- ver in- to Ca- naan|land; Where the|
w: ||||
w: ||||
 [Ge][Ge][Ge][Ge] [Gd]2 [Gd][Fd] | [Ec][Ae][Ad][Ac] [GB]2 G2 | %16
w: ||
w: grapes of Esc- hol grow, Where the|milk and hon- ey flow, Come|
w: ||
w: ||
"^riten." B>"^ad lib."=A Bc [EGg]2 [DFf]2 | [Ee]6 |] %18
w: ||
w: o- ver in- to Ca- naan|land.|
w: ||
w: ||
V:2
 E2 | x6 E x | x8 | x8 | x6 E2 | x6 E x | x8 | x8 | D2 E2 x2 || x2 | x8 | x8 | x8 | x8 | x8 | %15
 x6 G2 | B>=A Bc x4 | x6 |] %18
V:3
 [E,G,]2 | [E,B,][E,B,][E,B,][E,B,] [E,B,][E,A,][E,G,][E,B,] | [E,G,]2 [B,,A,]2 [E,G,]2 [E,B,]2 | %3
w: |||
 [E,B,]>[E,B,] [E,B,E][E,B,] [E,E]2 [E,B,]2 | [B,,B,]6 [E,G,]2 | %5
w: ||
 [E,B,][E,B,][E,B,][E,B,] [E,B,][E,A,][E,G,][E,B,] | G,2 [F,A,]2 [G,B,]2 [_G,B,]2 | %7
w: ||
 [F,B,]>[F,=A,] [F,B,][F,A,] [F,B,]2 [F,,A,]2 | (B,2 _G,2 !fermata![B,,A,]2) || [E,G,]2 | %10
w: |||
 [E,B,] [E,B,]3 [E,B,][E,=A,][E,B,][E,G,] | B,6 [B,,F,]2 | %12
w: |in- *|
 [B,,F,] [B,,F,]3 [B,,B,][B,,B,][B,,B,][B,,B,] | B,6 [E,B,][E,B,] | %14
w: |to Ca- naan|
 [E,B,][E,B,][E,B,][E,B,] [G,=B,]2 [G,B,][G,B,] | [A,C][A,C][A,E][A,E] [E,E]2 G,2 | %16
w: land, in- to Ca- naan land, *||
 B,>=A, B,C B,2 [B,,_A,]2 | [E,G,]6 |] %18
w: ||
V:4
 x2 | x8 | x8 | x8 | x8 | x8 | x8 | x8 | B,,4- x2 || x2 | x8 | E,=E,F,D, B,,2 x2 | x8 | %13
 E,B,,C,D, E,2 x2 | x8 | x6 G,2 | B,>=A, B,C B,2 x2 | x6 |] %18

